repeat-once.svg

<svg fill="currentColor" viewBox="0 0 24 24"><path d="M13 15V9h-1l-2 1v1h1.5v4m5.5 2H7v-3l-4 4 4 4v-3h12v-6h-2M7 7h10v3l4-4-4-4v3H5v6h2z"/></svg>

<svg  viewBox="0 0 24 24" fill="currentColor"><path  d="M13,15V9H12L10,10V11H11.5V15M17,17H7V14L3,18L7,22V19H19V13H17M7,7H17V10L21,6L17,2V5H5V11H7V7Z"/></svg>
